X:1
T:Rosemary Lane
M:3/4
L:1/4
K:C
 E| E2 A,/2A,/2| E G E/2E/2| B, D B,| A,2E/2-^F/2| G ^F G| A2 B/2A/2|\
 G ED/2-E/2| E2 E/2^F/2| G ^F G| A2B/2-A/2| G2D/2-G/2| ^F/2- G3/2- F-|\
 ^F2 F| E2 A,/2A,/2| E G E| B, D B,| A,2||

